X:3548
T:Crooked Road
M:C
L:1/8
K:G Major
G2AG FGAD|G2AG AdcA|G2AG FGAg|fdcA dBcA:|!
dgg2 fgag|dgg2 agfe|dgg2 fgag|fdcA dBcA|!
dgg2 fgag|dgg2 a2ga|bgaf dbag|fdcA dBcA|]!


